images/Black and White Collection 2.svg

<svg width="73" height="81" viewBox="0 0 73 81" fill="none" xmlns="http://www.w3.org/2000/svg">
<path opacity="0.8" d="M35.1298 0L0.998535 22.6192V22.6618L27.3911 40.1432L35.1298 35.0053V0Z" fill="#A7A9AC"/>
<path opacity="0.8" d="M0.998535 57.6884L35.1298 80.286V45.2809L27.3911 40.1431L0.998535 57.6244V57.6884Z" fill="#A7A9AC"/>
<path opacity="0.8" d="M72.608 23.1739L38.4771 0.554688V35.56L46.2371 40.6978L72.608 23.2165V23.1739Z" fill="#A7A9AC"/>
<path opacity="0.8" d="M38.4771 80.841L72.608 58.2215V58.1788L46.2371 40.6975L38.4771 45.8353V80.841Z" fill="#A7A9AC"/>
<path opacity="0.8" d="M0.998535 22.6619V57.6246L27.3911 40.1432L0.998535 22.6619Z" fill="#414042"/>
<path opacity="0.8" d="M72.609 58.179V23.2163L46.2373 40.6977L72.609 58.179Z" fill="#414042"/>
</svg>

<svg width="73" height="81" fill="none" xmlns="http://www.w3.org/2000/svg"><path opacity=".8" d="M35.13 0 .999 22.62v.042L27.39 40.143l7.739-5.138V0ZM.999 57.688l34.13 22.598V45.281l-7.738-5.138L1 57.624v.064ZM72.608 23.174 38.478.554V35.56l7.76 5.138 26.37-17.482v-.042Z" fill="#A7A9AC"/><path opacity=".8" d="m38.477 80.841 34.131-22.62v-.042l-26.37-17.482-7.76 5.138v35.006Z" fill="#A7A9AC"/><path opacity=".8" d="M.999 22.662v34.963L27.39 40.143 1 22.662ZM72.609 58.179V23.216L46.237 40.698 72.61 58.179Z" fill="#414042"/></svg>
